X: 2
T: Tralee Gaol
R: polka
M: 2/4
L: 1/8
K: Edor
|: BE EF/A/ | BA FA | BE EF/E/ | D>E FA |
BE EF/A/ | B/c/B/A/ FA | BA/B/ dF | FE E2 :|
|: Be ef | ed BA | Be ef | d2 d>A |
Be ef | ed B>c | dB AF | E2 E2 :|


Tune 1113	Setting 14366

